X: 13
T:Limerick's Lamentation
M:3/4
L:1/8
S:McCullough's Collection of Irish Airs 1821
R:Air
K:G
"Moderato"G>A|B2 B2 B>c|B2 A2 Bd|e2 A2 A>B|A4 G>A|
B2 cBAG|E2 D2 G>A|B2 G2 A>G|G4:|
G2|B>c d3 d|de dc BA|G2 g2 g2|{ba}g4 G>A|
B>c d3 d|ed cB AG|G2 g3 g|g4 d>e|
=f3 g f2|e2 d2 eg|d2 ed cB|B2 A2 G>A|
B2 cB AG|E2 D2 G>A|B2 G2 A>G|G4||

